material/.icons/material/file-compare.svg

<svg xmlns="http://www.w3.org/2000/svg" viewBox="0 0 24 24"><path d="M10 18H6v-2h4v2m0-4H6v-2h4v2m0-13v1H6c-1.11 0-2 .89-2 2v16a2 2 0 002 2h4v1h2V1h-2m10 7v12c0 1.11-.89 2-2 2h-4v-2h4v-9h-4V9h4.5L14 4.5V2l6 6m-4 6h-2v-2h2v2m0 4h-2v-2h2v2z"/></svg>

<?xml version="1.0" encoding="UTF-8"?><!DOCTYPE svg PUBLIC "-//W3C//DTD SVG 1.1//EN" "http://www.w3.org/Graphics/SVG/1.1/DTD/svg11.dtd"><svg xmlns="http://www.w3.org/2000/svg" xmlns:xlink="http://www.w3.org/1999/xlink" version="1.1" id="mdi-file-compare" width="24" height="24" viewBox="0 0 24 24"><path d="M10,18H6V16H10V18M10,14H6V12H10V14M10,1V2H6C4.89,2 4,2.89 4,4V20A2,2 0 0,0 6,22H10V23H12V1H10M20,8V20C20,21.11 19.11,22 18,22H14V20H18V11H14V9H18.5L14,4.5V2L20,8M16,14H14V12H16V14M16,18H14V16H16V18Z" /></svg>
